X: 2
T: Sonny's Return
R: reel
M: 4/4
L: 1/8
K: Bmin
fBBc dcBA|F~A3 BAFE|FBBc dcBc|defa bafe|fBBc dcBA|F~A3 BAFA|1 defa bafe|dBBA ~B3 b:|2 defa bafe|dBBA ~B3 c||d2fd adfe|d2fa bafe|d2fd adfd|effe dBBc|d2fd adfe|d2fa bafe|1 fbba affe|dBBA ~B3 c:|2 fbba affe|dBBA ~B3 b||


Tune 2083	Setting 15476

